svg/fluentui-system-icons/ic_fluent_send_copy_20_regular.svg

<svg width="20" height="20" viewBox="0 0 20 20" fill="none" xmlns="http://www.w3.org/2000/svg">
<path d="M8.64645 2.14645C8.84171 1.95118 9.15829 1.95118 9.35355 2.14645L12.3536 5.14645C12.5488 5.34171 12.5488 5.65829 12.3536 5.85355C12.1583 6.04882 11.8417 6.04882 11.6464 5.85355L9.5 3.70711V11.5C9.5 11.7761 9.27614 12 9 12C8.72386 12 8.5 11.7761 8.5 11.5V3.70711L6.35355 5.85355C6.15829 6.04882 5.84171 6.04882 5.64645 5.85355C5.45118 5.65829 5.45118 5.34171 5.64645 5.14645L8.64645 2.14645ZM5.26758 17C5.61339 17.5978 6.25973 18 7.00001 18H13C15.2092 18 17 16.2091 17 14V10.5C17 10.2239 16.7762 10 16.5 10C16.2239 10 16 10.2239 16 10.5V14C16 15.6569 14.6569 17 13 17H5.26758ZM4 8.5C4 8.22386 3.77614 8 3.5 8C3.22386 8 3 8.22386 3 8.5V14C3 15.1046 3.89543 16 5 16H13C14.1046 16 15 15.1046 15 14V8.5C15 8.22386 14.7761 8 14.5 8C14.2239 8 14 8.22386 14 8.5V14C14 14.5523 13.5523 15 13 15H5C4.44772 15 4 14.5523 4 14V8.5Z" fill="#212121"/>
</svg>

<svg xmlns="http://www.w3.org/2000/svg" width="20" height="20"><path d="M8.646 2.146a.5.5 0 0 1 .708 0l3 3a.5.5 0 0 1-.708.708L9.5 3.707V11.5a.5.5 0 0 1-1 0V3.707L6.354 5.854a.5.5 0 1 1-.708-.708l3-3ZM5.268 17A2 2 0 0 0 7 18h6a4 4 0 0 0 4-4v-3.5a.5.5 0 1 0-1 0V14a3 3 0 0 1-3 3H5.268ZM4 8.5a.5.5 0 0 0-1 0V14a2 2 0 0 0 2 2h8a2 2 0 0 0 2-2V8.5a.5.5 0 0 0-1 0V14a1 1 0 0 1-1 1H5a1 1 0 0 1-1-1V8.5Z"/></svg>
